assets/dist/images/integrations/logos/branch.svg

<svg xmlns="http://www.w3.org/2000/svg" width="87" height="40" viewBox="0 0 87 40">
  <g fill="none" transform="translate(.5 4)">
    <path fill="#333E48" d="M8.00780488 15.555122C5.85365854 15.555122 4.2302439 16.2263415 3.1297561 17.7795122L3.1297561 7.63317073C3.1297561 7.51678682 3.0354083 7.42243902 2.91902439 7.42243902L.983414634 7.42243902C.867030726 7.42243902.772682927 7.51678682.772682927 7.63317073L.772682927 31.1492683C.772682927 31.2656522.867030726 31.36.983414634 31.36L2.91902439 31.36C3.0354083 31.36 3.1297561 31.2656522 3.1297561 31.1492683L3.1297561 29.3697561C3.6669808 30.121253 4.39422871 30.7165189 5.23707317 31.0946341 6.11042479 31.4760791 7.05485083 31.6676246 8.00780488 31.6565854 9.8373787 31.7448515 11.5996117 30.9564842 12.7531707 29.5336585 13.8926829 28.118374 14.462439 26.135935 14.462439 23.5863415 14.462439 21.036748 13.8978862 19.0647154 12.7687805 17.6702439 11.607952 16.2488529 9.84070502 15.4637318 8.00780488 15.555122L8.00780488 15.555122zM11.1297561 27.777561C10.3929457 28.7802857 9.19465401 29.3367405 7.95317073 29.2526829 6.6649858 29.3701706 5.3947242 28.8862614 4.51121951 27.9414634 3.79317073 27.0673171 3.43414634 25.6104065 3.43414634 23.5707317 3.43414634 21.5310569 3.78276423 20.0845528 4.48 19.2312195 5.17723577 18.3726829 6.31674797 17.9434146 7.89853659 17.9434146 9.14086633 17.8463568 10.3516274 18.3656711 11.137561 19.3326829 11.922574 20.5918372 12.2886922 22.0672389 12.1834146 23.5473171 12.2781135 25.0433321 11.9073159 26.5319754 11.1219512 27.8087805L11.1297561 27.777561zM50.3102439 15.5239024C47.4926829 15.5239024 45.7990244 16.835122 45.3229268 17.724878L45.3229268 16.0156098C45.3229268 15.8992258 45.228579 15.804878 45.1121951 15.804878L43.1765854 15.804878C43.0602015 15.804878 42.9658537 15.8992258 42.9658537 16.0156098L42.9658537 31.1336585C42.9658537 31.2500424 43.0602015 31.3443902 43.1765854 31.3443902L45.1121951 31.3443902C45.228579 31.3443902 45.3229268 31.2500424 45.3229268 31.1336585L45.3229268 23.3990244C45.3229268 21.3749593 45.7001626 19.923252 46.4546341 19.0439024 47.3521105 18.0142687 48.6640272 17.4413793 50.0292683 17.4829268 51.0240074 17.3968871 52.0084857 17.7373407 52.737561 18.4195122 53.3730342 19.2209938 53.6824493 20.2328647 53.6039024 21.2526829L53.6039024 31.0946341C53.6039024 31.2110181 53.6982502 31.3053659 53.8146341 31.3053659L55.7502439 31.3053659C55.8666278 31.3053659 55.9609756 31.2110181 55.9609756 31.0946341L55.9609756 21.1668293C55.9609756 19.1843902 55.4874797 17.7404878 54.5404878 16.835122 53.3541465 15.8653638 51.8370886 15.3951318 50.3102439 15.5239024L50.3102439 15.5239024zM69.8692683 16.2497561C69.3665107 16.0364522 68.8435458 15.8743331 68.3082927 15.7658537 67.5723145 15.6060231 66.8214253 15.5249166 66.0682927 15.5239024 64.0562905 15.3976657 62.0929606 16.1761289 60.7141463 17.6468293 59.4601626 19.0621138 58.8331707 21.0705691 58.8331707 23.6721951 58.8331707 26.2738211 59.4497561 28.2328455 60.6829268 29.5492683 62.029937 30.9806142 63.9422944 31.7409835 65.9043902 31.6253659 67.2168161 31.6582195 68.5194462 31.3912871 69.7131707 30.844878 69.7844153 30.8095332 69.8296928 30.7370893 69.8302439 30.657561L69.8302439 29.0107317C69.8291028 28.9429508 69.7954236 28.8798577 69.7397425 28.8411903 69.6840615 28.8025229 69.6131784 28.7930033 69.5492683 28.8156098 68.3711907 29.2828816 67.1170576 29.5289457 65.8497561 29.5414634 64.519493 29.6213075 63.236141 29.0366369 62.4234146 27.9804878 61.5734319 26.6791783 61.1681385 25.1374206 61.2682927 23.5863415 61.2682927 19.5590244 62.8474797 17.5453659 66.0058537 17.5453659 66.5553342 17.5537879 67.1022773 17.6218286 67.6370732 17.7482927 68.1488777 17.8615453 68.6522018 18.0101954 69.1434146 18.1931707 69.1950938 18.2130816 69.2526655 18.2110056 69.3027763 18.187424 69.3528871 18.1638425 69.3911826 18.1208045 69.4087805 18.0682927L69.9941633 16.444878C69.9952103 16.3607385 69.9461176 16.2840312 69.8692683 16.2497561L69.8692683 16.2497561zM38.6263415 16.3668293C37.7313821 15.5447154 36.3577236 15.1336585 34.5053659 15.1336585 33.5810154 15.1343865 32.6604929 15.2524022 31.7658537 15.484878 30.9544321 15.6926021 30.1689923 15.9910693 29.4243902 16.3746341 29.3300307 16.4262315 29.2896637 16.5406047 29.3307317 16.64L29.9004878 18.0604878C29.9227326 18.1126871 29.9650879 18.1537101 30.0179713 18.1742759 30.0708547 18.1948416 30.129797 18.1932122 30.1814634 18.1697561 31.4822722 17.5046 32.9126985 17.1316769 34.3726829 17.0770732 35.2969449 16.9950251 36.212012 17.3133093 36.8858537 17.9512195 37.3113182 18.5129883 37.5562602 19.1906611 37.5882927 19.8946341L35.4107317 19.8946341C34.3482037 19.8675168 33.2898041 20.0368608 32.2887805 20.3941463 31.2831652 20.7720021 30.375996 21.3723347 29.635122 22.1502439 28.4733841 23.3967169 27.9046297 25.0830739 28.0741463 26.7785366 28.2159958 28.3078195 29.0461096 29.6894277 30.3297561 30.5326829 31.3074251 31.2287807 32.4778869 31.6025645 33.6780488 31.6019542L33.6780488 31.6019542C34.3110061 31.6026114 34.9393586 31.4943659 35.5356098 31.2819512 36.335905 30.9982127 37.0672948 30.5487404 37.6819512 29.9629268L37.6819512 31.1102439C37.6819512 31.2266278 37.776299 31.3209756 37.8926829 31.3209756L39.7190244 31.3209756C39.8354083 31.3209756 39.9297561 31.2266278 39.9297561 31.1102439L39.9297561 20.4253659C39.9609756 18.6146341 39.5160976 17.1941463 38.6263415 16.3668293zM37.7131707 24.5463415C37.7131707 26.5678049 36.6985366 28.7843902 34.6770732 29.502439 33.5812214 29.875249 32.37293 29.6980716 31.4302439 29.0263415 30.615877 28.3872201 30.1109518 27.4325602 30.0410038 26.3997113 29.9710558 25.3668624 30.3426554 24.3528413 31.0634146 23.6097561 31.5946787 23.0573962 32.2426642 22.6307391 32.96 22.3609756 33.737297 22.0918157 34.5573645 21.9674829 35.3795122 21.9941463L37.7209756 21.9941463C37.7209756 21.9941463 37.7131707 24.5463415 37.7131707 24.5463415zM26.1307317 15.804878C25.5748108 15.7274297 25.0139531 15.6909088 24.4526829 15.6956098 21.6897561 15.7970732 19.7697561 17.5765854 19.7697561 17.7560976 19.7697561 17.1863415 19.7697561 16.7102439 19.7697561 16.195122 19.7697561 16.078738 19.6754083 15.9843902 19.5590244 15.9843902L17.6234146 15.9843902C17.5070307 15.9843902 17.4126829 16.078738 17.4126829 16.195122L17.4126829 31.3131707C17.4126829 31.4295546 17.5070307 31.5239024 17.6234146 31.5239024L19.5590244 31.5239024C19.6754083 31.5239024 19.7697561 31.4295546 19.7697561 31.3131707L19.7697561 23.1258537C19.7240834 21.7305258 20.2030695 20.3687571 21.1121951 19.3092683 21.8947729 18.3275699 23.0801687 17.7535284 24.3356098 17.7482927 24.8340849 17.7543718 25.3307657 17.8092681 25.8185366 17.9121951 25.8745375 17.9235623 25.9327538 17.9116998 25.979842 17.8793267 26.0269302 17.8469536 26.0588527 17.7968456 26.0682927 17.7404878L26.3336585 15.9843902C26.3185412 15.883237 26.2329737 15.8075427 26.1307317 15.804878L26.1307317 15.804878z"/>
    <path fill="#333E48" d="M84.5112195,16.8819512 C83.3327421,15.9001563 81.8182606,15.4158581 80.2887805,15.5317073 C77.4712195,15.5317073 75.777561,16.8429268 75.3014634,17.7326829 L75.3014634,17.5687805 L75.2,14.7121951 L77.7287805,13.1512195 C78.476888,13.6906416 79.501684,13.6272952 80.1776628,12.999845 C80.8536417,12.3723949 80.9930167,11.3551466 80.5107174,10.5689988 C80.0284181,9.78285092 79.0584271,9.44619521 78.1927987,9.76451645 C77.3271702,10.0828377 76.8063756,10.9677063 76.9482927,11.8790244 L75.1609756,12.9795122 L75.0360976,9.33463415 L77.5258537,7.81268293 C78.3991912,8.46391337 79.6144252,8.3923836 80.4053328,7.64319419 C81.1962403,6.89400477 81.3334535,5.68442521 80.7304573,4.77711317 C80.1274611,3.86980112 78.9591281,3.52788263 77.9621095,3.9669423 C76.9650908,4.40600198 76.428528,5.49870985 76.6907317,6.55609756 L74.9736585,7.61756098 L74.8721951,4.70634146 C75.787493,4.35298103 76.3208638,3.39736541 76.1411428,2.43282706 C75.9614217,1.46828872 75.1196757,0.768896683 74.1385366,0.768896683 C73.1573975,0.768896683 72.3156515,1.46828872 72.1359304,2.43282706 C71.9562093,3.39736541 72.4895801,4.35298103 73.404878,4.70634146 L73.217561,10.7395122 L71.3521951,9.55317073 C71.6042941,8.43467247 71.0093629,7.29814737 69.9465742,6.86794689 C68.8837855,6.4377464 67.6658052,6.84043286 67.0688993,7.81935858 C66.4719934,8.7982843 66.6717679,10.0654554 67.5408988,10.8132547 C68.4100296,11.5610539 69.692824,11.5694834 70.5717073,10.8331707 L73.1707317,12.48 L73.0380488,16.8897561 L73.0380488,16.8897561 L72.9678049,19.2312195 L72.9678049,31.1258537 C72.9678049,31.2422376 73.0621527,31.3365854 73.1785366,31.3365854 L75.1297561,31.3365854 C75.24614,31.3365854 75.3404878,31.2422376 75.3404878,31.1258537 L75.3404878,23.3912195 C75.3404878,21.3671545 75.7177236,19.9154472 76.4721951,19.0360976 C77.2875977,18.111533 78.4479498,17.5638242 79.68,17.5219512 L80.0390244,17.5219512 C81.0311346,17.4381767 82.0123175,17.7784713 82.7395122,18.4585366 C83.3749854,19.2600181 83.6844005,20.271889 83.6058537,21.2917073 L83.6058537,28.9795122 L83.6058537,28.9795122 L83.6058537,31.1414634 C83.6058537,31.2578473 83.7002015,31.3521951 83.8165854,31.3521951 L85.7678049,31.3521951 C85.8841888,31.3521951 85.9785366,31.2578473 85.9785366,31.1414634 L85.9785366,21.2136585 C85.9421138,19.2260163 85.4530081,17.7821138 84.5112195,16.8819512 Z"/>
    <circle cx="74.107" cy="2.818" r="1.233" fill="#4DA3DC"/>
    <circle cx="78.767" cy="11.614" r="1.124" fill="#4DA3DC"/>
    <circle cx="78.882" cy="6.092" r="1.319" fill="#4DA3DC" transform="rotate(-25.97 78.882 6.092)"/>
    <circle cx="69.026" cy="9.022" r="1.428" fill="#4DA3DC"/>
  </g>
</svg>

<svg xmlns="http://www.w3.org/2000/svg" width="87" height="40" viewBox="0 0 87 40"><g fill="none" transform="translate(.5 4)"><path fill="#333E48" d="M8.008 15.555c-2.154 0-3.778.671-4.878 2.225V7.633a.21.21 0 00-.211-.21H.983a.21.21 0 00-.21.21V31.15a.21.21 0 00.21.211H2.92a.21.21 0 00.21-.21v-1.78a5.214 5.214 0 002.108 1.725 6.728 6.728 0 002.77.562c1.83.088 3.593-.7 4.746-2.123 1.14-1.416 1.71-3.398 1.71-5.948 0-2.55-.565-4.521-1.694-5.916a5.776 5.776 0 00-4.761-2.115zm3.122 12.223a3.637 3.637 0 01-3.177 1.475 4.191 4.191 0 01-3.442-1.312c-.718-.874-1.077-2.33-1.077-4.37s.349-3.486 1.046-4.34c.697-.858 1.837-1.288 3.419-1.288a3.793 3.793 0 013.239 1.39 7.024 7.024 0 011.045 4.214 7.259 7.259 0 01-1.061 4.262l.008-.031zm39.18-12.254c-2.817 0-4.511 1.311-4.987 2.2v-1.708a.21.21 0 00-.21-.211h-1.936a.21.21 0 00-.211.21v15.119c0 .116.094.21.21.21h1.936a.21.21 0 00.21-.21v-7.735c0-2.024.378-3.476 1.133-4.355a4.558 4.558 0 013.574-1.561 3.52 3.52 0 012.709.937c.635.801.944 1.813.866 2.833v9.842c0 .116.094.21.21.21h1.936a.21.21 0 00.211-.21v-9.928c0-1.983-.474-3.427-1.42-4.332a5.9 5.9 0 00-4.23-1.311zm19.56.726a8.133 8.133 0 00-1.562-.484 10.612 10.612 0 00-2.24-.242 6.759 6.759 0 00-5.354 2.123c-1.254 1.415-1.88 3.424-1.88 6.025 0 2.602.616 4.56 1.849 5.877a6.634 6.634 0 005.221 2.076 8.632 8.632 0 003.81-.78.21.21 0 00.116-.187V29.01a.21.21 0 00-.28-.195 10.31 10.31 0 01-3.7.725 4.02 4.02 0 01-3.427-1.56 7.188 7.188 0 01-1.155-4.395c0-4.027 1.58-6.04 4.738-6.04.55.008 1.096.076 1.631.202.512.114 1.015.262 1.506.445a.203.203 0 00.266-.125l.585-1.623a.21.21 0 00-.125-.195zm-31.244.117c-.895-.822-2.268-1.233-4.12-1.233-.925 0-1.846.118-2.74.35-.812.209-1.597.507-2.342.89a.21.21 0 00-.093.266l.57 1.42a.21.21 0 00.28.11 10.03 10.03 0 014.192-1.093 3.239 3.239 0 012.513.874c.425.562.67 1.24.702 1.944h-2.177a8.632 8.632 0 00-3.122.5 7.126 7.126 0 00-2.654 1.755 5.924 5.924 0 00-1.56 4.629 5.05 5.05 0 002.255 3.754 5.768 5.768 0 003.348 1.069 5.55 5.55 0 001.858-.32 6.033 6.033 0 002.146-1.32v1.148a.21.21 0 00.21.211h1.827a.21.21 0 00.21-.21V20.424c.032-1.81-.413-3.23-1.303-4.058zm-.913 8.18c0 2.02-1.014 4.237-3.036 4.955a3.598 3.598 0 01-3.247-.476 3.653 3.653 0 01-.367-5.416 5.143 5.143 0 011.897-1.249 6.728 6.728 0 012.42-.367h2.341l-.008 2.552zm-11.582-8.742a11.465 11.465 0 00-1.678-.11c-2.763.102-4.683 1.882-4.683 2.061v-1.56a.21.21 0 00-.211-.212h-1.936a.21.21 0 00-.21.211v15.118c0 .117.094.21.21.21h1.936a.21.21 0 00.21-.21v-8.187a5.58 5.58 0 011.343-3.817 4.144 4.144 0 013.224-1.56c.498.005.995.06 1.483.163a.21.21 0 00.25-.172l.265-1.756a.21.21 0 00-.203-.18z"/><path fill="#333E48" d="M84.511 16.882a5.9 5.9 0 00-4.222-1.35c-2.818 0-4.511 1.31-4.988 2.2v-.163l-.101-2.857 2.529-1.56a1.936 1.936 0 10-.78-1.273l-1.788 1.1-.125-3.644 2.49-1.522a2.24 2.24 0 10-.835-1.257l-1.717 1.062-.102-2.912a2.037 2.037 0 10-1.467 0l-.187 6.034-1.866-1.187a2.341 2.341 0 10-.78 1.28l2.599 1.647-.133 4.41-.07 2.341v11.895c0 .116.094.21.21.21h1.952a.21.21 0 00.21-.21V23.39c0-2.024.378-3.476 1.132-4.355a4.48 4.48 0 013.208-1.514h.359a3.52 3.52 0 012.7.937c.636.801.945 1.813.867 2.833v9.849a.21.21 0 00.21.211h1.952a.21.21 0 00.21-.21v-9.928c-.036-1.988-.525-3.432-1.467-4.332z"/><circle cx="74.107" cy="2.818" r="1.233" fill="#4DA3DC"/><circle cx="78.767" cy="11.614" r="1.124" fill="#4DA3DC"/><circle cx="78.882" cy="6.092" r="1.319" fill="#4DA3DC" transform="rotate(-25.97 78.882 6.092)"/><circle cx="69.026" cy="9.022" r="1.428" fill="#4DA3DC"/></g></svg>
